tools/download-figma-icons/icons/solid/attention.svg

<svg width="25" height="24" viewBox="0 0 25 24" fill="none" xmlns="http://www.w3.org/2000/svg">
<path d="M23.671 18.9375L14.0335 2.6625C13.606 1.935 12.8485 1.5 12.001 1.5C11.1535 1.5 10.396 1.935 9.96849 2.6625L0.330993 18.9375C-0.104007 19.6725 -0.111507 20.565 0.315993 21.3075C0.743492 22.0575 1.50849 22.5 2.36349 22.5H21.6385C22.4935 22.5 23.2585 22.0575 23.686 21.3075C24.1135 20.565 24.106 19.6725 23.671 18.9375ZM12.001 19.5C11.3785 19.5 10.876 18.9975 10.876 18.375C10.876 17.7525 11.3785 17.25 12.001 17.25C12.6235 17.25 13.126 17.7525 13.126 18.375C13.126 18.9975 12.6235 19.5 12.001 19.5ZM12.736 15.09C12.691 15.465 12.3835 15.75 12.001 15.75C11.6185 15.75 11.296 15.465 11.251 15.09L10.5085 9.09C10.4785 8.88 10.546 8.6625 10.6885 8.505C10.831 8.34 11.0335 8.25 11.251 8.25H12.751C12.9685 8.25 13.171 8.34 13.3135 8.505C13.456 8.6625 13.5235 8.88 13.4935 9.09L12.736 15.09Z" fill="black"/>
</svg>

<svg width="25" height="24" viewBox="0 0 25 24" fill="none" xmlns="http://www.w3.org/2000/svg"><path d="M23.671 18.938 14.034 2.663A2.333 2.333 0 0 0 12 1.5c-.848 0-1.605.435-2.033 1.163L.331 18.937a2.333 2.333 0 0 0-.015 2.37A2.33 2.33 0 0 0 2.363 22.5H21.64a2.33 2.33 0 0 0 2.047-1.192 2.333 2.333 0 0 0-.015-2.37Zm-11.67.562a1.123 1.123 0 0 1-1.125-1.125 1.124 1.124 0 1 1 2.25 0c0 .622-.502 1.125-1.125 1.125Zm.735-4.41a.74.74 0 0 1-.735.66.754.754 0 0 1-.75-.66l-.742-6a.726.726 0 0 1 .18-.585.735.735 0 0 1 .562-.255h1.5c.218 0 .42.09.563.255.142.157.21.375.18.585l-.758 6Z" fill="currentColor"/></svg>
